!!!OTL: DREI LEDRIGE STRUEMPF
!!!ARE: Europa, Mitteleuropa, Deutschland; France, Elsass
!!!SCT: E1022
!!!YEM: Copyright 1995, estate of Helmut Schaffrath.
**kern
*ICvox
*Ivox
*M2/4
*k[b-]
*F:
{8cc
=1
8cc
16cc
16cc
8a
8cc
=2
8cc
16cc
16cc
8a}
{8cc
=3
8b-
8a
8b-
8g
=4
4cc
4f}
=5
{8dd
8dd
8dd
8b-
=6
8cc
8cc
4cc}
=7
{8b-
8b-
8b-
8g
=8
8a
8a
4a}
=9
{8dd
8dd
8dd
8b-
=10
8cc
8cc
4cc}
=11
{8b-
8b-
8b-
8g
=12
8a
8a
8a}
==
!!!AGN: Tanz - Lied, Spiel, Pantomime
!!!ONB: ESAC (Essen Associative Code) Database: ERK3
!!!AMT: simple duple
!!!AIN: vox
!!!EED: Helmut Schaffrath
!!!EEV: 1.0
*-
